X:0
T:Tailgate Party, The
M:C|
C:© Paul Gitlitz 2007
R:Reel
K:D
A|"D"FA2A FA2A|defd BAFD|"Bm"B,D2D B,D2D|"G"GABd "A"edBA|!
"D"FA2A FA2A|"D"defd "A"edef|"G"gfed "Bm"dcBA |"F#m"FABc "D"d3:|!
A|:"D"fa2f "G"gbag|"D"fafd "Em"edBA|"F#m"fa2f "G"gbag|"A"fedc "D"d2ag|!
"D"fa2f "G"gbag|"D"fafd "Bm"edBd|"G"gfed "Bm"dcBA |"A"FABc "D"d4:|!
